X:1
T:Sonata Violino Solo representativa
T:Sonata Violino Solo representativa
T:Heinrich Ignaz Franz von Biber (1644-1704)
T:Nachtigal (following)
C:Heinrich Ignaz Franz von Biber (1644-1704)
%%score [ ( 1 2 3 ) 4 ]
L:1/8
Q:1/4=90
M:2/2
K:A
V:1 treble nm="Violino Solo"
V:2 treble 
V:3 treble 
V:4 bass nm="Basso Continuo"
V:1
"^Allegro" e3 a a3 e | ecAE A,3 C | EAce ae a c' | e'c' ae Tc>B ^AB | ABc^d [Be]fga | %5
 bTg/f/ ea- a/b/a/g/ fe/^d/ | eb ge eafd | BecA Ad fa | d'afd (d>e) c>B | c2 d>d d3 c | %10
 TB3 A/G/ A4 |]:[M:6/4][Q:1/4=180] a3 a e2 .f3 =g a2 | =g3 f e2 f4 e2 | d4 e2 c4 B2 | A3 cBA B6 | %15
 A3 A E2 A2 B2 c2 | d6 c4 B2 | A3 Bcd e6 | e2 f2 g2 a6 | g2 Tf4 e3 e B2 | .a3 a e2 f4 x2 | %21
 .e3 dcB c4 E2 | .A3 d Tc2 .e3 e e2 | .e3 e e2 .f3 f f2 | .g3 g g2 .g3 g g2 | .a3 a a2 .a3 a a2 | %26
 .=g3 g g2 .g3 g g2 | .f3 f f2 .e3 e e2 | .e3 e e2 .e3 e e2 | .f3 f f2 .b3 b b2 | %30
 .b3 b b2 .a3 a a2 | .a3 a a2 .g3 g g2 | g3 g g2 .a3 a a2 | .a3 a a2 .a3 b ^g2 | %34
 .[ca]3 [ca] [ca]2 .e3 e e2 | .c3 c c2 .A3 A A2 | .E3 E E2 A,6 :| %37
V:2
 c3 x c2 x2 | cAEC x4 | CEAc cc c x | x6 G2 | F2 x2 G2 x2 | x2 z c B4 | e2 x2 c2 x2 | G2 x2 F2 x2 | %8
 z fdF G2 x2 | A2 F2 E4 | E4 A4 |]:[M:6/4] x6 d3 d A2 | B4 c2 d4 c2 | F4 G2 E4 G2 | F4 x2 G4 x2 | %15
 z6 F2 G2 A2 | F4 G2 A4 G2 | F4 x2 G4 x2 | c2 d2 e2 c4 ^d2 | e4 ^d2 e3 x3 | c6 d3 cBA | %21
 G2 x4 A3 A x2 | F2 x4 G2 z2 z2 | A2 z2 z2 F2 z2 z2 | E2 z2 z2 E2 z2 z2 | E2 x4 E2 x4 | %26
 E2 x4 E2 x4 | [Fd]2 x4 [Gd]2 x4 | A2 x4 ^A2 x4 | ^A2 x4 d2 x4 | c2 x4 c2 x4 | d2 x4 B2 x4 | %32
 E2 x4 E2 x4 | E2 x4 E2 x4 | E2 z2 z2 c3 c c2 | A3 A A2 E3 E E2 | C3 C C2 x6 :| %37
V:3
 x8 | x8 | x8 | x8 | x8 | x8 | x8 | x8 | x8 | x8 | x8 |]:[M:6/4] x12 | x12 | x12 | x12 | x12 | %16
 x12 | x6 B4 x2 | x12 | x12 | x12 | B2 x10 | x6 B2 x4 | c2 x4 A2 x4 | B2 x4 d2 x4 | c2 x4 B2 x4 | %26
 B2 x4 A2 x4 | x12 | c2 x4 c2 x4 | c2 x4 F2 x4 | F2 x4 F2 x4 | F2 x4 F2 x4 | d2 x4 c2 x4 | %33
 B2 x4 B2 x4 | x12 | x12 | x12 :| %37
V:4
 A,,8 | A,,8 | A,,8 | A,,4- A,,3 E,, | F,,4 E,,3 F,, | ^G,,2 A,,2 B,,4 | E,,4 A,,2 D,B,, | %7
 E,2 A,,2 D,4 | D,4 B,,4 | A,,2 D,2 E,F,^G,A, | E,4 A,,4 |]:[M:6/4] z12 | z6 D,3 D, A,,2 | %13
 B,,3 A,, ^G,,2 A,,4 E,2 | F,6 E,3 E, B,,2 | C,6 D,3 D, A,,2 | B,,6 A,,3 A,, E,,2 | %17
 F,,6 E,,2 F,,2 ^G,,2 | A,,3 A,, E,2 F,3 F, B,,2 | E,2 B,,4 E,4 ^G,2 | A,4 C,2 D,6 | E,6 A,,4 C,2 | %22
 D,2 B,,2 A,,2 E,,6 | A,,6 D,6 | E,6 E,6 | A,,6 E,6 | E,6 E,6 | D,6 B,,6 | A,,6 G,,6 | F,,6 B,,6 | %30
 F,6 F,6 | B,,6 E,6 | E,6 A,,6 | E,,6 E,,6 | A,,6 A,,6 | A,,6 A,,6 | A,,6 A,,6 :| %37

